src/assets/logo.svg

<svg fill="none" height="33" viewBox="0 0 105 33" width="105" xmlns="http://www.w3.org/2000/svg"><g fill="#363636"><path d="m5.986 17.9279c.08171.67.35951 1.2011.8334 1.5933.49024.3922 1.2501.6863 2.2796.8824 1.0295.1798 2.4267.2697 4.1915.2697 1.6995 0 2.9823-.0654 3.8484-.1961.866-.1471 1.4462-.3595 1.7403-.6373.2941-.2942.4412-.6945.4412-1.2011 0-.4576-.1552-.7926-.4657-1.005-.2942-.2288-.8824-.4004-1.7649-.5148-.8824-.1307-2.3776-.2778-4.4856-.4412-2.3205-.1634-4.10983-.3595-5.3681-.5882-1.24193-.2452-2.19789-.6374-2.86788-1.1766-.66999-.5556-1.00498-1.3645-1.00498-2.4267 0-1.6504.82523-2.81066 2.47569-3.48065s3.92189-1.00498 6.81427-1.00498c2.9251 0 5.1965.32682 6.8143.98047 1.6341.65364 2.5247 1.87106 2.6718 3.65226h-3.3091c-.0654-.5556-.3268-.9805-.7844-1.2746-.4412-.2942-1.1112-.4984-2.01-.6128-.8987-.1144-2.1407-.1716-3.7258-.1716-2.0916 0-3.55417.1471-4.38757.4412-.8334.2942-1.2501.719-1.2501 1.2746 0 .3759.15524.6618.46573.8579.31048.1961.90693.3677 1.78936.5148.88242.1307 2.29598.2778 4.24058.4412l1.103.098c2.0917.1798 3.6768.3759 4.7553.5883 1.0785.1961 1.9446.5801 2.5982 1.1521.67.5719 1.005 1.4217 1.005 2.5492 0 1.7975-.7599 3.0476-2.2796 3.7503-1.5197.6863-3.7911 1.0295-6.8143 1.0295-2.1407 0-3.98722-.1389-5.53963-.4167-1.53607-.2778-2.79435-.8089-3.77482-1.5933-.96413-.7843-1.47887-1.8955-1.54424-3.3336z"/><path d="m41.3046 11.1627h-7.28v5.5151c0 1.0949.0899 1.912.2696 2.4512.1798.5229.5148.8906 1.005 1.103.4903.2125 1.242.3187 2.2551.3187.9968 0 2.2469-.098 3.7503-.2941v2.6227c-1.7322.2615-3.211.3922-4.4366.3922-1.5361 0-2.729-.1879-3.5787-.5638-.8334-.3758-1.4299-1.0131-1.7894-1.9119-.3595-.9151-.5393-2.206-.5393-3.8728v-5.7603h-4.265v-2.6718h4.265v-3.3336l3.064-1.0295v4.3631h7.28z"/><path d="m64.3698 8.4909h3.4317l-8.7752 15.614c-.6374 1.1602-1.2665 2.0999-1.8875 2.8189-.6209.719-1.3399 1.2664-2.157 1.6423-.8171.3921-1.7894.5882-2.9169.5882-.8497 0-1.6178-.0408-2.3041-.1225s-1.4789-.2043-2.3776-.3677v-2.6718c1.487.3105 2.8597.4657 4.1179.4657 1.0295 0 1.8793-.2287 2.5493-.6863.6699-.4575 1.3318-1.2746 1.9854-2.4512l.2942-.5392h-1.7404l-8.0644-14.2904h3.5052l7.182 12.7216z"/><path d="m72.8243 22.7813v-19.60946h3.064v19.60946z"/><path d="m91.9502 23.2715c-3.0722 0-5.5234-.6455-7.3536-1.9364-1.8138-1.291-2.7208-3.1866-2.7208-5.6868s.907-4.3957 2.7208-5.68669c1.8302-1.3073 4.2814-1.96094 7.3536-1.96094 3.0721 0 5.5151.65364 7.329 1.96094 1.8138 1.29099 2.7208 3.18649 2.7208 5.68669s-.907 4.3958-2.7208 5.6868c-1.8139 1.2909-4.2569 1.9364-7.329 1.9364zm0-2.6963c2.206 0 3.881-.4085 5.0249-1.2256 1.1439-.8334 1.7158-2.0671 1.7158-3.7013 0-1.6504-.5719-2.8842-1.7158-3.7012-1.1439-.8334-2.8189-1.2501-5.0249-1.2501-2.2224 0-3.9056.4167-5.0495 1.2501-1.1438.817-1.7158 2.0508-1.7158 3.7012 0 1.6505.572 2.8843 1.7158 3.7013 1.1439.8171 2.8271 1.2256 5.0495 1.2256zm-5.1965-14.95218v-2.45118h3.9954v2.45118zm6.373 0v-2.45118h3.9955v2.45118z"/></g></svg>

<svg width="105" height="33" viewBox="0 0 105 33" fill="none" xmlns="http://www.w3.org/2000/svg">
<path d="M5.986 17.9279C6.06771 18.5979 6.34551 19.129 6.8194 19.5212C7.30964 19.9134 8.0695 20.2075 9.099 20.4036C10.1285 20.5834 11.5257 20.6733 13.2905 20.6733C14.99 20.6733 16.2728 20.6079 17.1389 20.4772C18.0049 20.3301 18.5851 20.1177 18.8792 19.8399C19.1733 19.5457 19.3204 19.1454 19.3204 18.6388C19.3204 18.1812 19.1652 17.8462 18.8547 17.6338C18.5605 17.405 17.9723 17.2334 17.0898 17.119C16.2074 16.9883 14.7122 16.8412 12.6042 16.6778C10.2837 16.5144 8.49437 16.3183 7.2361 16.0896C5.99417 15.8444 5.03821 15.4522 4.36822 14.913C3.69823 14.3574 3.36324 13.5485 3.36324 12.4863C3.36324 10.8359 4.18847 9.67564 5.83893 9.00565C7.48939 8.33566 9.76082 8.00067 12.6532 8.00067C15.5783 8.00067 17.8497 8.32749 19.4675 8.98114C21.1016 9.63478 21.9922 10.8522 22.1393 12.6334H18.8302C18.7648 12.0778 18.5034 11.6529 18.0458 11.3588C17.6046 11.0646 16.9346 10.8604 16.0358 10.746C15.1371 10.6316 13.8951 10.5744 12.31 10.5744C10.2184 10.5744 8.75583 10.7215 7.92243 11.0156C7.08903 11.3098 6.67233 11.7346 6.67233 12.2902C6.67233 12.6661 6.82757 12.952 7.13806 13.1481C7.44854 13.3442 8.04499 13.5158 8.92742 13.6629C9.80984 13.7936 11.2234 13.9407 13.168 14.1041L14.271 14.2021C16.3627 14.3819 17.9478 14.578 19.0263 14.7904C20.1048 14.9865 20.9709 15.3705 21.6245 15.9425C22.2945 16.5144 22.6295 17.3642 22.6295 18.4917C22.6295 20.2892 21.8696 21.5393 20.3499 22.242C18.8302 22.9283 16.5588 23.2715 13.5356 23.2715C11.3949 23.2715 9.54838 23.1326 7.99597 22.8548C6.4599 22.577 5.20162 22.0459 4.22115 21.2615C3.25702 20.4772 2.74228 19.366 2.67691 17.9279H5.986Z" fill="#363636"/>
<path d="M41.3046 11.1627H34.0246V16.6778C34.0246 17.7727 34.1145 18.5898 34.2942 19.129C34.474 19.6519 34.809 20.0196 35.2992 20.232C35.7895 20.4445 36.5412 20.5507 37.5543 20.5507C38.5511 20.5507 39.8012 20.4527 41.3046 20.2566V22.8793C39.5724 23.1408 38.0936 23.2715 36.868 23.2715C35.3319 23.2715 34.139 23.0836 33.2893 22.7077C32.4559 22.3319 31.8594 21.6946 31.4999 20.7958C31.1404 19.8807 30.9606 18.5898 30.9606 16.923V11.1627H26.6956V8.4909H30.9606V5.1573L34.0246 4.1278V8.4909H41.3046V11.1627Z" fill="#363636"/>
<path d="M64.3698 8.4909H67.8015L59.0263 24.1049C58.3889 25.2651 57.7598 26.2048 57.1388 26.9238C56.5179 27.6428 55.7989 28.1902 54.9818 28.5661C54.1647 28.9582 53.1924 29.1543 52.0649 29.1543C51.2152 29.1543 50.4471 29.1135 49.7608 29.0318C49.0745 28.9501 48.2819 28.8275 47.3832 28.6641V25.9923C48.8702 26.3028 50.2429 26.458 51.5011 26.458C52.5306 26.458 53.3804 26.2293 54.0504 25.7717C54.7203 25.3142 55.3822 24.4971 56.0358 23.3205L56.33 22.7813H54.5896L46.5252 8.4909H50.0304L57.2124 21.2125L64.3698 8.4909Z" fill="#363636"/>
<path d="M72.8243 22.7813V3.17184H75.8883V22.7813H72.8243Z" fill="#363636"/>
<path d="M91.9502 23.2715C88.878 23.2715 86.4268 22.626 84.5966 21.3351C82.7828 20.0441 81.8758 18.1485 81.8758 15.6483C81.8758 13.1481 82.7828 11.2526 84.5966 9.96161C86.4268 8.65431 88.878 8.00067 91.9502 8.00067C95.0223 8.00067 97.4653 8.65431 99.2792 9.96161C101.093 11.2526 102 13.1481 102 15.6483C102 18.1485 101.093 20.0441 99.2792 21.3351C97.4653 22.626 95.0223 23.2715 91.9502 23.2715ZM91.9502 20.5752C94.1562 20.5752 95.8312 20.1667 96.9751 19.3496C98.119 18.5162 98.6909 17.2825 98.6909 15.6483C98.6909 13.9979 98.119 12.7641 96.9751 11.9471C95.8312 11.1137 94.1562 10.697 91.9502 10.697C89.7278 10.697 88.0446 11.1137 86.9007 11.9471C85.7569 12.7641 85.1849 13.9979 85.1849 15.6483C85.1849 17.2988 85.7569 18.5326 86.9007 19.3496C88.0446 20.1667 89.7278 20.5752 91.9502 20.5752ZM86.7537 5.62302V3.17184H90.7491V5.62302H86.7537ZM93.1267 5.62302V3.17184H97.1222V5.62302H93.1267Z" fill="#363636"/>
</svg>
